teeny/outline/share.svg

<svg width="15" height="15" viewBox="0 0 15 15" fill="none" xmlns="http://www.w3.org/2000/svg">
<path d="M4.5 7.5L8.5 7.5M11 4L8.5 7.49542L11 11M14.5 2.4987C14.5 3.60198 13.604 4.49739 12.5 4.49739C11.396 4.49739 10.5 3.60198 10.5 2.4987C10.5 1.39542 11.396 0.5 12.5 0.5C13.604 0.5 14.5 1.39542 14.5 2.4987ZM14.5 12.4922C14.5 13.5954 13.604 14.4909 12.5 14.4909C11.396 14.4909 10.5 13.5954 10.5 12.4922C10.5 11.3889 11.396 10.4935 12.5 10.4935C13.604 10.4935 14.5 11.3889 14.5 12.4922ZM4.5 7.49543C4.5 8.59871 3.604 9.49413 2.5 9.49413C1.396 9.49413 0.5 8.59871 0.5 7.49543C0.5 6.39215 1.396 5.49673 2.5 5.49673C3.604 5.49673 4.5 6.39215 4.5 7.49543Z" stroke="black" stroke-linecap="square"/>
</svg>

<svg viewBox="0 0 15 15" xmlns="http://www.w3.org/2000/svg"><path fill="none" stroke="#000" stroke-linecap="square" d="M4.5 7.5h4M11 4L8.5 7.49l2.5 3.5m3.5-8.51c0 1.1-.9 1.99-2 1.99 -1.11 0-2-.9-2-2 0-1.11.89-2 2-2 1.1 0 2 .89 2 1.99Zm0 9.99c0 1.1-.9 1.99-2 1.99 -1.11 0-2-.9-2-2 0-1.11.89-2 2-2 1.1 0 2 .89 2 1.99Zm-10-5c0 1.1-.9 1.99-2 1.99 -1.11 0-2-.9-2-2 0-1.11.89-2 2-2 1.104 0 2 .89 2 1.99Z"/></svg>
